!!!OTL: KENNT IHR NICHT DEN HERRN VON FALKENSTEIN
!!!ARE: Europa, Mitteleuropa, Deutschland, Rheinland
!!!SCT: Z0142
!!!YEM: Copyright 1995, estate of Helmut Schaffrath.
**kern
*ICvox
*Ivox
*M2/4
*k[b-e-]
*B-:
{16b-
16b-
=1
16dd
16cc
16b-
16a
8b-
8f
=2
8d
8f
8b-}
{16b-
16b-
=3
16dd
16cc
16b-
16a
8b-
8f
=4
8d
8f
8b-}
{16b-
16b-
=5
8cc
8cc
8cc
8dd
=6
8ee-
16dd
16cc
8dd}
{16b-
16b-
=7
16dd
16cc
16b-
16a
8b-
8f
=8
8d
8f
8b-}
{8b-
=9
16dd
16cc
16b-
16a
8b-
8f
=10
8d
8f
8b-}
{8b-
=11
8cc
8cc
8cc
8dd
=12
8ee-
16dd
16cc
8dd}
{16b-
16b-
=13
16dd
16cc
16b-
16a
8b-
16b-
16b-
=14
16dd
16cc
16b-
16a
8b-}
{16b-
16b-
=15
16dd
16cc
16b-
16a
8b-
16b-
16b-
=16
16dd
16cc
16b-
16a
8b-}
{8b-
=17
16cc
16cc
16cc
16cc
8cc
16cc
16cc
=18
8cc
8cc
8cc
8dd
=19
8ee-
16dd
16cc
8dd}
==
!!!AGN: Erzaehlung, lustige Romanze
!!!ONB: ESAC (Essen Associative Code) Database: ZUCCAL
!!!AMT: simple duple
!!!AIN: vox
!!!EED: Helmut Schaffrath
!!!EEV: 1.0
*-
